X: 42959
T: Willie Clancy's
R: reel
M: 4/4
K: Adorian
EAAB ~c2BA|GBdB AGED|EAAB cdef|gedB eAAG|
EAAB ~c2BA|GBdB AGED|EAAB cdef|gedB eAAd||
eaag edBd|~g2bg edBd|~g2bg efge|dBgB BAA2|
eaag edBd|~g2bg edBd|gabg efge|dBgB BAAG||

